priv/static/svgs/icons_new/generic-users.svg

<svg width="32" height="32" viewBox="0 0 32 32" fill="none" xmlns="http://www.w3.org/2000/svg">
<path d="M20.2207 20.2731C22.4936 20.2731 24.3627 20.1468 24.9702 19.7407C25.2544 19.5506 25.5268 19.0383 25.4979 18.6759C25.4979 16.3304 21.573 16.3304 21.573 16.3304C21.573 16.3304 21.573 16.3304 21.573 16.3304H20.2582C20.2332 16.3304 20.2086 16.3307 20.1836 16.3316C19.8115 16.3447 16.7656 16.4833 16.684 17.5063M23.387 11.2222C23.387 12.3983 22.4419 13.3518 21.2761 13.3518C20.1103 13.3518 19.1653 12.3983 19.1653 11.2222C19.1653 10.046 20.1103 9.09253 21.2761 9.09253C22.4419 9.09253 23.387 10.046 23.387 11.2222ZM16.4513 11.3604C16.4513 13.2163 14.96 14.7208 13.1205 14.7208C11.2809 14.7208 9.78967 13.2163 9.78967 11.3604C9.78967 9.5045 11.2809 8 13.1205 8C14.96 8 16.4513 9.5045 16.4513 11.3604ZM19.2437 22.4947C18.3619 23.0842 16.461 24 13.1616 24C9.86218 24 7.96125 23.0842 7.07944 22.4947C6.66682 22.2188 6.46344 21.7109 6.50541 21.1848C6.55144 20.6076 6.71105 20.0309 6.8952 19.5313C7.25411 18.5575 8.24152 18.026 9.27933 18.026H17.0439C18.0817 18.026 19.0691 18.5575 19.428 19.5313C19.6121 20.0309 19.7717 20.6076 19.8178 21.1848C19.8597 21.7109 19.6564 22.2188 19.2437 22.4947Z" stroke="black" stroke-linecap="round" stroke-linejoin="round"/>
</svg>

<svg width="32" height="32" viewBox="0 0 32 32" fill="none" xmlns="http://www.w3.org/2000/svg">
  <symbol id="item" viewBox="0 0 32 32" stroke-width="1" fill="none">
    <path d="M20.22 20.273c2.274 0 4.143-.126 4.75-.532.284-.19.557-.703.528-1.065 0-2.346-3.925-2.346-3.925-2.346s0 0 0 0h-1.315c-.025 0-.05 0-.074.002-.373.013-3.418.151-3.5 1.174m6.703-6.284a2.12 2.12 0 0 1-2.11 2.13 2.12 2.12 0 0 1-2.112-2.13 2.12 2.12 0 0 1 2.111-2.13 2.12 2.12 0 0 1 2.111 2.13Zm-6.936.138c0 1.856-1.491 3.36-3.33 3.36-1.84 0-3.331-1.504-3.331-3.36C9.79 9.505 11.28 8 13.12 8s3.331 1.505 3.331 3.36Zm2.793 11.135c-.882.59-2.783 1.505-6.082 1.505-3.3 0-5.2-.916-6.083-1.505-.412-.276-.616-.784-.574-1.31.046-.577.206-1.154.39-1.654.36-.973 1.347-1.505 2.384-1.505h7.765c1.038 0 2.025.532 2.384 1.505.184.5.344 1.077.39 1.654.042.526-.162 1.034-.574 1.31Z" stroke="currentColor" stroke-linecap="round" stroke-linejoin="round"/>
  </symbol>
</svg>
